static/img/kroki/56c4691f492c9b8ce65a950b1ab72035.svg

<?xml version="1.0" encoding="us-ascii" standalone="no"?><svg xmlns="http://www.w3.org/2000/svg" xmlns:xlink="http://www.w3.org/1999/xlink" contentStyleType="text/css" height="573px" preserveAspectRatio="none" style="width:282px;height:573px;" version="1.1" viewBox="0 0 282 573" width="282px" zoomAndPan="magnify"><defs/><g><!--class ai_model--><g id="elem_ai_model"><rect codeLine="23" fill="#3D176E" height="39.7891" id="ai_model" rx="2.5" ry="2.5" style="stroke:#000D19;stroke-width:0.5;" width="118" x="21.5" y="367.37"/><ellipse cx="36.5" cy="387.2645" fill="#ADD1B2" rx="11" ry="11" style="stroke:#181818;stroke-width:1.0;"/><path d="M39.4688,392.9052 Q38.8906,393.202 38.25,393.3427 Q37.6094,393.4989 36.9063,393.4989 Q34.4063,393.4989 33.0781,391.8583 Q31.7656,390.202 31.7656,387.077 Q31.7656,383.952 33.0781,382.2958 Q34.4063,380.6395 36.9063,380.6395 Q37.6094,380.6395 38.25,380.7958 Q38.9063,380.952 39.4688,381.2489 L39.4688,383.9677 Q38.8438,383.3895 38.25,383.1239 Q37.6563,382.8427 37.0313,382.8427 Q35.6875,382.8427 35,383.9208 Q34.3125,384.9833 34.3125,387.077 Q34.3125,389.1708 35,390.2489 Q35.6875,391.3114 37.0313,391.3114 Q37.6563,391.3114 38.25,391.0458 Q38.8438,390.7645 39.4688,390.1864 L39.4688,392.9052 Z " fill="#000000"/><text fill="#D9B8FF" font-family="Helvetica" font-size="17" lengthAdjust="spacing" textLength="76" x="55.5" y="393.1498">ai_model</text></g><!--class ai_resource--><g id="elem_ai_resource"><rect codeLine="26" fill="#3D176E" height="39.7891" id="ai_resource" rx="2.5" ry="2.5" style="stroke:#000D19;stroke-width:0.5;" width="137" x="7" y="167.79"/><ellipse cx="22" cy="187.6845" fill="#ADD1B2" rx="11" ry="11" style="stroke:#181818;stroke-width:1.0;"/><path d="M24.9688,193.3252 Q24.3906,193.622 23.75,193.7627 Q23.1094,193.9189 22.4063,193.9189 Q19.9063,193.9189 18.5781,192.2783 Q17.2656,190.622 17.2656,187.497 Q17.2656,184.372 18.5781,182.7158 Q19.9063,181.0595 22.4063,181.0595 Q23.1094,181.0595 23.75,181.2158 Q24.4063,181.372 24.9688,181.6689 L24.9688,184.3877 Q24.3438,183.8095 23.75,183.5439 Q23.1563,183.2627 22.5313,183.2627 Q21.1875,183.2627 20.5,184.3408 Q19.8125,185.4033 19.8125,187.497 Q19.8125,189.5908 20.5,190.6689 Q21.1875,191.7314 22.5313,191.7314 Q23.1563,191.7314 23.75,191.4658 Q24.3438,191.1845 24.9688,190.6064 L24.9688,193.3252 Z " fill="#000000"/><text fill="#D9B8FF" font-family="Helvetica" font-size="17" lengthAdjust="spacing" textLength="95" x="41" y="193.5698">ai_resource</text></g><!--class gcp_resource--><g id="elem_gcp_resource"><rect codeLine="29" fill="#3D176E" height="39.7891" id="gcp_resource" rx="2.5" ry="2.5" style="stroke:#000D19;stroke-width:0.5;" width="150" x="125.5" y="267.58"/><ellipse cx="140.5" cy="287.4745" fill="#ADD1B2" rx="11" ry="11" style="stroke:#181818;stroke-width:1.0;"/><path d="M143.4688,293.1152 Q142.8906,293.412 142.25,293.5527 Q141.6094,293.7089 140.9063,293.7089 Q138.4063,293.7089 137.0781,292.0683 Q135.7656,290.412 135.7656,287.287 Q135.7656,284.162 137.0781,282.5058 Q138.4063,280.8495 140.9063,280.8495 Q141.6094,280.8495 142.25,281.0058 Q142.9063,281.162 143.4688,281.4589 L143.4688,284.1777 Q142.8438,283.5995 142.25,283.3339 Q141.6563,283.0527 141.0313,283.0527 Q139.6875,283.0527 139,284.1308 Q138.3125,285.1933 138.3125,287.287 Q138.3125,289.3808 139,290.4589 Q139.6875,291.5214 141.0313,291.5214 Q141.6563,291.5214 142.25,291.2558 Q142.8438,290.9745 143.4688,290.3964 L143.4688,293.1152 Z " fill="#000000"/><text fill="#D9B8FF" font-family="Helvetica" font-size="17" lengthAdjust="spacing" textLength="108" x="159.5" y="293.3598">gcp_resource</text></g><!--class gcp_vertex_ai_model--><g id="elem_gcp_vertex_ai_model"><rect codeLine="32" fill="#3D176E" height="39.7891" id="gcp_vertex_ai_model" rx="2.5" ry="2.5" style="stroke:#000D19;stroke-width:0.5;" width="218" x="31.5" y="528.16"/><ellipse cx="46.5" cy="548.0545" fill="#ADD1B2" rx="11" ry="11" style="stroke:#181818;stroke-width:1.0;"/><path d="M49.4688,553.6952 Q48.8906,553.992 48.25,554.1327 Q47.6094,554.2889 46.9063,554.2889 Q44.4063,554.2889 43.0781,552.6483 Q41.7656,550.992 41.7656,547.867 Q41.7656,544.742 43.0781,543.0858 Q44.4063,541.4295 46.9063,541.4295 Q47.6094,541.4295 48.25,541.5858 Q48.9063,541.742 49.4688,542.0389 L49.4688,544.7577 Q48.8438,544.1795 48.25,543.9139 Q47.6563,543.6327 47.0313,543.6327 Q45.6875,543.6327 45,544.7108 Q44.3125,545.7733 44.3125,547.867 Q44.3125,549.9608 45,551.0389 Q45.6875,552.1014 47.0313,552.1014 Q47.6563,552.1014 48.25,551.8358 Q48.8438,551.5545 49.4688,550.9764 L49.4688,553.6952 Z " fill="#000000"/><text fill="#D9B8FF" font-family="Helvetica" font-size="17" lengthAdjust="spacing" textLength="176" x="65.5" y="553.9398">gcp_vertex_ai_model</text></g><!--class resource--><g id="elem_resource"><rect codeLine="35" fill="#3D176E" height="39.7891" id="resource" rx="2.5" ry="2.5" style="stroke:#000D19;stroke-width:0.5;" width="113" x="81" y="7"/><ellipse cx="96" cy="26.8945" fill="#ADD1B2" rx="11" ry="11" style="stroke:#181818;stroke-width:1.0;"/><path d="M98.9688,32.5352 Q98.3906,32.832 97.75,32.9727 Q97.1094,33.1289 96.4063,33.1289 Q93.9063,33.1289 92.5781,31.4883 Q91.2656,29.832 91.2656,26.707 Q91.2656,23.582 92.5781,21.9258 Q93.9063,20.2695 96.4063,20.2695 Q97.1094,20.2695 97.75,20.4258 Q98.4063,20.582 98.9688,20.8789 L98.9688,23.5977 Q98.3438,23.0195 97.75,22.7539 Q97.1563,22.4727 96.5313,22.4727 Q95.1875,22.4727 94.5,23.5508 Q93.8125,24.6133 93.8125,26.707 Q93.8125,28.8008 94.5,29.8789 Q95.1875,30.9414 96.5313,30.9414 Q97.1563,30.9414 97.75,30.6758 Q98.3438,30.3945 98.9688,29.8164 L98.9688,32.5352 Z " fill="#000000"/><text fill="#D9B8FF" font-family="Helvetica" font-size="17" lengthAdjust="spacing" textLength="71" x="115" y="32.7798">resource</text></g><!--reverse link ai_resource to ai_model--><g id="link_ai_resource_ai_model"><path codeLine="38" d="M76.4426,225.9843 C77.3926,263.7543 79.05,329.05 80.01,366.88 " fill="none" id="ai_resource-backto-ai_model" style="stroke:#FFAF37;stroke-width:2.0;"/><polygon fill="none" points="75.99,207.99,70.4445,226.1352,82.4407,225.8334,75.99,207.99" style="stroke:#FFAF37;stroke-width:2.0;"/></g><!--reverse link resource to ai_resource--><g id="link_resource_ai_resource"><path codeLine="39" d="M123.4716,63.8166 C111.5516,94.3366 94.94,136.9 83.01,167.47 " fill="none" id="resource-backto-ai_resource" style="stroke:#FFAF37;stroke-width:2.0;"/><polygon fill="none" points="130.02,47.05,117.8827,61.6338,129.0604,65.9994,130.02,47.05" style="stroke:#FFAF37;stroke-width:2.0;"/></g><!--reverse link resource to gcp_resource--><g id="link_resource_gcp_resource"><path codeLine="40" d="M146.3895,64.3988 C158.0095,112.1088 184.05,218.98 195.78,267.08 " fill="none" id="resource-backto-gcp_resource" style="stroke:#FFAF37;stroke-width:2.0;"/><polygon fill="none" points="142.13,46.91,140.5599,65.8186,152.2191,62.9789,142.13,46.91" style="stroke:#FFAF37;stroke-width:2.0;"/></g><!--reverse link ai_model to gcp_vertex_ai_model--><g id="link_ai_model_gcp_vertex_ai_model"><path codeLine="41" d="M94.1013,424.2585 C105.6313,454.7785 121.69,497.27 133.24,527.83 " fill="none" id="ai_model-backto-gcp_vertex_ai_model" style="stroke:#FFAF37;stroke-width:2.0;"/><polygon fill="none" points="87.74,407.42,88.4885,426.3789,99.7141,422.138,87.74,407.42" style="stroke:#FFAF37;stroke-width:2.0;"/></g><!--reverse link gcp_resource to gcp_vertex_ai_model--><g id="link_gcp_resource_gcp_vertex_ai_model"><path codeLine="42" d="M192.0208,325.024 C180.9508,372.724 156.16,479.56 145,527.66 " fill="none" id="gcp_resource-backto-gcp_vertex_ai_model" style="stroke:#FFAF37;stroke-width:2.0;"/><polygon fill="none" points="196.09,307.49,186.1761,323.6676,197.8655,326.3804,196.09,307.49" style="stroke:#FFAF37;stroke-width:2.0;"/></g><!--SRC=[XP3BRi8m44Nt_WfBh96IeZOWTKCZLUq6LQLxvCJZn2Asex61qiU_joabE0w1xRt7CsTSIWuKLEtsL87A02snQwbhXapHEQBPfQOoI4T2C359mlBHQ7SLM305z0cgBJYPiv1uAsM-rc0jlV6g1vQl2pGRpG_Z7J9jVolGpgFIYbaxTmvbjd7WoV1PDXKY9CEXemcFapleOGOvu3yIHH6FPo5oTTN5krjYAJ-0nlwdBOo3dcPlnHzrqR8XFCdUeST-qF65SIvrGM-zxFNWX1gmaozBniskeGMhhB_6Ea0mRbz3shiAPbCkahFmyn1CykRhA9ChPJXKz9EGxrE6OCq6S_3Z8gy7yosWW_VLkMdT9_xi-w_nUDmQa7v-JCBADo7jpbCNs92E-J3s0m00]--></g></svg>

<svg xmlns="http://www.w3.org/2000/svg" width="282" height="573" viewBox="0 0 282 573"><rect width="118" height="39.789" x="21.5" y="367.37" fill="#3D176E" rx="2.5" ry="2.5" style="stroke:#000d19;stroke-width:.5"/><circle cx="36.5" cy="387.264" r="11" fill="#ADD1B2" style="stroke:#181818;stroke-width:1"/><path d="M39.469 392.905q-.578.297-1.219.438-.64.156-1.344.156-2.5 0-3.828-1.64-1.312-1.657-1.312-4.782t1.312-4.781q1.328-1.656 3.828-1.656.703 0 1.344.156.656.156 1.219.453v2.719q-.625-.579-1.219-.844-.594-.281-1.219-.281-1.343 0-2.031 1.078-.687 1.062-.687 3.156t.687 3.172q.688 1.062 2.031 1.062.625 0 1.219-.265.594-.281 1.219-.86z"/><text x="55.5" y="393.15" fill="#D9B8FF" font-family="Helvetica" font-size="17" textLength="76">ai_model</text><rect width="137" height="39.789" x="7" y="167.79" fill="#3D176E" rx="2.5" ry="2.5" style="stroke:#000d19;stroke-width:.5"/><circle cx="22" cy="187.685" r="11" fill="#ADD1B2" style="stroke:#181818;stroke-width:1"/><path d="M24.969 193.325q-.578.297-1.219.438-.64.156-1.344.156-2.5 0-3.828-1.64-1.312-1.657-1.312-4.782t1.312-4.781q1.328-1.656 3.828-1.656.703 0 1.344.156.656.156 1.219.453v2.719q-.625-.578-1.219-.844-.594-.281-1.219-.281-1.343 0-2.031 1.078-.687 1.062-.687 3.156t.687 3.172q.688 1.062 2.031 1.062.625 0 1.219-.265.594-.281 1.219-.86z"/><text x="41" y="193.57" fill="#D9B8FF" font-family="Helvetica" font-size="17" textLength="95">ai_resource</text><rect width="150" height="39.789" x="125.5" y="267.58" fill="#3D176E" rx="2.5" ry="2.5" style="stroke:#000d19;stroke-width:.5"/><circle cx="140.5" cy="287.474" r="11" fill="#ADD1B2" style="stroke:#181818;stroke-width:1"/><path d="M143.469 293.115q-.578.297-1.219.438-.64.156-1.344.156-2.5 0-3.828-1.64-1.312-1.657-1.312-4.782t1.312-4.781q1.328-1.656 3.828-1.656.703 0 1.344.156.656.156 1.219.453v2.719q-.625-.579-1.219-.844-.594-.281-1.219-.281-1.344 0-2.031 1.078-.687 1.062-.687 3.156t.687 3.172q.688 1.062 2.031 1.062.625 0 1.219-.265.594-.281 1.219-.86z"/><text x="159.5" y="293.36" fill="#D9B8FF" font-family="Helvetica" font-size="17" textLength="108">gcp_resource</text><rect width="218" height="39.789" x="31.5" y="528.16" fill="#3D176E" rx="2.5" ry="2.5" style="stroke:#000d19;stroke-width:.5"/><circle cx="46.5" cy="548.054" r="11" fill="#ADD1B2" style="stroke:#181818;stroke-width:1"/><path d="M49.469 553.695q-.578.297-1.219.438-.64.156-1.344.156-2.5 0-3.828-1.64-1.312-1.657-1.312-4.782t1.312-4.781q1.328-1.657 3.828-1.657.703 0 1.344.157.656.156 1.219.453v2.719q-.625-.579-1.219-.844-.594-.281-1.219-.281-1.343 0-2.031 1.078-.687 1.062-.687 3.156t.687 3.172q.688 1.062 2.031 1.062.625 0 1.219-.265.594-.282 1.219-.86z"/><text x="65.5" y="553.94" fill="#D9B8FF" font-family="Helvetica" font-size="17" textLength="176">gcp_vertex_ai_model</text><rect width="113" height="39.789" x="81" y="7" fill="#3D176E" rx="2.5" ry="2.5" style="stroke:#000d19;stroke-width:.5"/><circle cx="96" cy="26.895" r="11" fill="#ADD1B2" style="stroke:#181818;stroke-width:1"/><path d="M98.969 32.535q-.578.297-1.219.438-.64.156-1.344.156-2.5 0-3.828-1.64-1.312-1.657-1.312-4.782t1.312-4.781q1.328-1.656 3.828-1.656.703 0 1.344.156.656.156 1.219.453v2.719q-.625-.578-1.219-.844-.594-.281-1.219-.281-1.344 0-2.031 1.078-.687 1.062-.687 3.156t.687 3.172q.688 1.062 2.031 1.062.625 0 1.219-.265.594-.281 1.219-.86z"/><text x="115" y="32.78" fill="#D9B8FF" font-family="Helvetica" font-size="17" textLength="71">resource</text><g fill="none"><path d="M76.443 225.984c.95 37.77 2.607 103.066 3.567 140.896" style="stroke:#ffaf37;stroke-width:2"/><path d="m75.99 207.99-5.545 18.145 11.996-.302z" style="stroke:#ffaf37;stroke-width:2"/></g><path fill="none" d="M123.472 63.817C111.552 94.337 94.94 136.9 83.01 167.47m47.01-120.42-12.137 14.584 11.177 4.365zm16.37 17.349c11.62 47.71 37.66 154.581 49.39 202.681M142.13 46.91l-1.57 18.909 11.66-2.84zM94.101 424.259c11.53 30.52 27.589 73.011 39.139 103.571m-45.5-120.41.749 18.959 11.225-4.241zm104.28-82.396c-11.07 47.7-35.86 154.536-47.02 202.636m51.09-220.17-9.914 16.178 11.69 2.712z" style="stroke:#ffaf37;stroke-width:2"/></svg>
